images/logo-dark.svg

<svg width="119" height="26" viewBox="0 0 119 26" fill="none" xmlns="http://www.w3.org/2000/svg">
<path d="M28.8801 5.80738C28.5455 5.54037 28.077 5.40686 27.6085 5.40686C27.1065 5.40686 26.638 5.57374 26.2699 5.84076C25.8348 6.17452 25.6006 6.6418 25.6006 7.2092V10.0462C25.6006 10.2131 25.701 10.38 25.8348 10.4801C25.9018 10.5135 26.0022 10.5469 26.1026 10.5469C26.1695 10.5469 26.2699 10.5135 26.3368 10.4801L29.2482 9.07829C29.4155 9.01153 29.5159 8.81127 29.5159 8.61101V7.10907C29.5159 6.84205 29.449 6.57504 29.3486 6.34141C29.2482 6.14115 29.0809 5.94089 28.8801 5.80738Z" fill="#BE1E25"/>
<path d="M118.364 5.80738C118.03 5.54037 117.561 5.40686 117.093 5.40686C116.591 5.40686 116.122 5.57374 115.754 5.84076C115.319 6.17452 115.085 6.6418 115.085 7.2092V10.0462C115.085 10.2131 115.185 10.38 115.319 10.4801C115.42 10.5135 115.487 10.5469 115.587 10.5469C115.654 10.5469 115.721 10.5135 115.821 10.4801L118.733 9.07829C118.9 9.01153 119 8.81127 119 8.61101V7.10907C119 6.84205 118.933 6.57504 118.833 6.34141C118.699 6.14115 118.565 5.94089 118.364 5.80738Z" fill="#BE1E25"/>
<path d="M51.234 8.11064C51.3344 7.94375 51.3679 7.71012 51.3679 7.44311C51.3679 7.17609 51.3344 6.94246 51.234 6.70882C51.1336 6.47518 50.9997 6.27492 50.799 6.10804C50.5982 5.90778 50.3974 5.77428 50.1966 5.67415C49.9623 5.57402 49.7281 5.54064 49.4604 5.54064C48.8915 5.54064 48.1218 5.77427 47.6198 6.77557C47.6198 6.77557 42.4328 17.5562 41.6631 19.1583C40.86 17.5896 35.4722 6.8757 35.4053 6.7422C34.9033 5.70752 34.1336 5.50726 33.5647 5.50726C33.297 5.50726 33.0627 5.54064 32.8285 5.64077C32.5942 5.7409 32.3934 5.8744 32.2261 6.07466C32.0253 6.27492 31.8915 6.47518 31.7911 6.67544C31.6907 6.90908 31.6572 7.14272 31.6572 7.40973C31.6572 7.71012 31.6907 7.91038 31.7911 8.07726C31.7911 8.07726 39.923 23.831 39.9564 23.831C40.1238 24.1648 40.2911 24.4986 40.4919 24.8323C40.6257 25.066 40.8265 25.2328 41.0273 25.3663C41.2616 25.4998 41.4958 25.5332 41.7635 25.5332C42.1651 25.5332 42.5332 25.3663 42.8679 25.066C43.169 24.7989 43.4368 24.4318 43.671 23.8978L51.234 8.11064Z" fill="#010101"/>
<path d="M24.8976 0.567401C24.6969 0.367142 24.4961 0.233635 24.2618 0.133506C24.0276 0.0333758 23.7933 0 23.5256 0C22.9902 0 22.2539 0.200259 21.8189 1.20156C21.8189 1.23493 13.6535 17.8231 12.8504 19.4586C12.0138 17.8231 3.58071 1.20156 3.58071 1.20156C3.07874 0.200259 2.34252 0 1.84055 0C1.6063 0 1.33858 0.0667532 1.1378 0.166883C0.903544 0.267013 0.702755 0.400519 0.535433 0.600779C0.36811 0.801038 0.200788 1.0013 0.133859 1.20156C0.0334651 1.43519 0 1.66883 0 1.90247C0 2.23623 0.0669291 2.46987 0.167323 2.7035C0.167323 2.73688 11.0768 23.9978 11.0768 23.9978C11.2441 24.3315 11.4114 24.6319 11.6122 24.9657C11.7461 25.1993 11.9469 25.3662 12.1476 25.4997C12.3484 25.5999 12.6161 25.6666 12.8839 25.6666C13.252 25.6666 13.5866 25.4997 13.9213 25.166C14.189 24.8989 14.4567 24.5318 14.6909 23.9978C14.6909 23.9978 25.2657 2.7035 25.2992 2.7035C25.3996 2.50325 25.4665 2.23623 25.4665 1.96922C25.4665 1.70221 25.3996 1.46857 25.3327 1.23493C25.1988 0.967921 25.065 0.767661 24.8976 0.567401Z" fill="#010101"/>
<path d="M29.2812 10.6145C29.2142 10.5477 29.1138 10.5477 29.0134 10.5477C28.9465 10.5477 28.8461 10.5811 28.7792 10.6145L25.9347 12.0497C25.7674 12.1498 25.667 12.3167 25.667 12.4836V13.3847V23.865C25.667 24.3656 25.8343 24.8329 26.2024 25.2001C26.3698 25.4003 26.5705 25.5338 26.8048 25.634C27.039 25.7341 27.2733 25.8008 27.541 25.8008C28.043 25.8008 28.478 25.634 28.8796 25.3002C29.0804 25.1333 29.2477 24.933 29.3481 24.6994C29.4485 24.4658 29.5154 24.2321 29.5154 23.9651V11.0484C29.5154 10.8481 29.415 10.7146 29.2812 10.6145Z" fill="#010101"/>
<path d="M111.872 22.6293C111.672 22.429 111.471 22.2955 111.237 22.1954C111.002 22.0952 110.768 22.0285 110.5 22.0285H109.262H108.024H107.924C107.489 22.0285 107.053 21.9951 106.652 21.9284C106.25 21.8616 105.849 21.7281 105.481 21.5946C105.113 21.4277 104.744 21.2608 104.41 21.0272C104.075 20.7936 103.74 20.5265 103.406 20.2262C103.071 19.9258 102.803 19.592 102.569 19.2582C102.335 18.9245 102.134 18.5573 101.967 18.1902C101.8 17.823 101.699 17.4225 101.599 17.022C101.532 16.6215 101.465 16.1876 101.465 15.7537C101.465 15.7537 101.465 10.3467 101.465 9.47888C102.368 9.47888 110.3 9.47888 110.3 9.47888C110.567 9.47888 110.802 9.44551 111.036 9.34538C111.27 9.24525 111.471 9.11174 111.672 8.94486C111.872 8.7446 112.006 8.54434 112.107 8.3107C112.207 8.07707 112.24 7.81005 112.24 7.54304C112.24 6.94226 112.107 6.47499 111.772 6.14122C111.471 5.80746 111.002 5.64057 110.433 5.64057C110.433 5.64057 102.335 5.64057 101.431 5.64057C101.431 4.90629 101.431 2.77018 101.431 2.77018V2.73681C101.398 2.23616 101.197 1.80226 100.829 1.40174C100.662 1.20148 100.427 1.06798 100.227 0.967847C99.9925 0.867718 99.7582 0.800964 99.4905 0.800964C99.2228 0.800964 98.9885 0.834341 98.7543 0.934471C98.52 1.0346 98.3192 1.16811 98.1519 1.33499C97.9511 1.50187 97.8173 1.70213 97.7169 1.93577C97.6165 2.16941 97.583 2.40304 97.583 2.63668V15.9873C97.583 16.6882 97.6499 17.3558 97.7838 18.0233C97.9177 18.6574 98.1184 19.2916 98.3527 19.8924C98.6204 20.4932 98.9216 21.0606 99.2897 21.5946C99.6578 22.1286 100.126 22.6293 100.628 23.1299C101.13 23.5972 101.666 24.0311 102.235 24.3982C102.803 24.7654 103.372 25.0658 103.975 25.2994C104.577 25.533 105.213 25.7333 105.882 25.8334C106.552 25.9669 107.221 26.0003 107.924 26.0003C108.459 26.0003 109.329 25.9669 110.5 25.9335C111.103 25.9002 111.538 25.7333 111.872 25.3995C112.207 25.0658 112.374 24.5985 112.374 24.0311C112.374 23.7641 112.307 23.5304 112.207 23.2968C112.207 23.0298 112.04 22.8295 111.872 22.6293Z" fill="#010101"/>
<path d="M118.732 10.6145C118.665 10.5477 118.565 10.5477 118.465 10.5477C118.398 10.5477 118.297 10.5811 118.23 10.6145L115.386 12.0497C115.219 12.1498 115.118 12.3167 115.118 12.4836V23.865C115.118 24.3656 115.285 24.8329 115.654 25.2001C115.821 25.4003 116.022 25.5338 116.256 25.634C116.49 25.7341 116.724 25.8008 116.992 25.8008C117.494 25.8008 117.929 25.634 118.331 25.3002C118.532 25.1333 118.699 24.933 118.799 24.6994C118.9 24.4658 118.967 24.2321 118.967 23.9651V11.0484C118.967 10.8481 118.9 10.7146 118.732 10.6145Z" fill="#010101"/>
<path d="M95.1732 15.9205C95.1732 15.2196 95.1063 14.5521 94.9724 13.8845C94.8386 13.2504 94.6378 12.5828 94.4035 11.9821C94.1358 11.3813 93.8346 10.7805 93.4665 10.2465C93.0984 9.71246 92.6299 9.17843 92.1614 8.67778C91.6594 8.17713 91.124 7.74324 90.5886 7.3761C90.0197 7.00895 89.4508 6.67519 88.8484 6.44155C88.2461 6.17454 87.6102 6.00765 86.9409 5.87415C86.2716 5.74064 85.6024 5.67389 84.8996 5.67389C84.1968 5.67389 83.4941 5.74064 82.8583 5.87415C82.189 6.00765 81.5531 6.17454 80.9508 6.44155C80.3484 6.70856 79.7461 7.00895 79.2106 7.3761C78.6752 7.74324 78.1398 8.17713 77.6378 8.67778C77.1358 9.17843 76.7008 9.71246 76.3327 10.2465C75.9646 10.7805 75.6299 11.3813 75.3957 11.9821C75.1614 12.5828 74.9606 13.217 74.8268 13.8512C74.6929 14.4853 74.626 15.1862 74.626 15.8871V23.9643C74.626 24.2313 74.6929 24.4649 74.7598 24.6986C74.8602 24.9322 74.9941 25.1325 75.1949 25.2993C75.3622 25.4662 75.5964 25.5997 75.7972 25.6999C76.0315 25.8 76.2657 25.8334 76.5 25.8334C76.7677 25.8334 77.002 25.7666 77.2362 25.6665C77.4705 25.5663 77.6713 25.4328 77.872 25.2326C78.0728 25.0323 78.2067 24.8321 78.3071 24.5984C78.4075 24.3648 78.4409 24.0978 78.4409 23.8308V15.9205C78.4409 15.4866 78.4744 15.0527 78.5413 14.6188C78.6083 14.2183 78.7421 13.8178 78.9094 13.4506C79.0768 13.0835 79.2776 12.7164 79.4783 12.3492C79.7126 12.0154 79.9803 11.6817 80.315 11.3479C80.6161 11.0475 80.9508 10.7471 81.3189 10.5135C81.6535 10.2799 82.0217 10.0796 82.3898 9.91272C82.7579 9.74583 83.1594 9.64571 83.5945 9.54558C83.9961 9.47882 84.4646 9.41207 84.8996 9.41207C85.3346 9.41207 85.7697 9.44545 86.1713 9.54558C86.5728 9.61233 86.9744 9.74583 87.3425 9.91272C87.7106 10.0796 88.0787 10.2799 88.4134 10.5135C88.748 10.7471 89.0827 11.0141 89.4173 11.3479C89.7185 11.6817 90.0197 12.0154 90.2539 12.3492C90.4882 12.683 90.689 13.0501 90.8563 13.4506C91.0236 13.8178 91.124 14.2183 91.1909 14.6188C91.2579 15.0193 91.3248 15.4532 91.3248 15.9205V23.9643C91.3248 24.2313 91.3583 24.4649 91.4587 24.6986C91.559 24.9322 91.6929 25.1325 91.8937 25.2993C92.2618 25.6331 92.6968 25.8 93.2323 25.8C93.5 25.8 93.7342 25.7332 93.9685 25.6331C94.2027 25.533 94.4035 25.3995 94.6043 25.1992C94.8051 24.9989 94.939 24.7987 95.0394 24.5651C95.1398 24.3314 95.1732 24.0978 95.1732 23.8308V15.9205Z" fill="#010101"/>
<path d="M70.9113 11.6488C70.6436 11.048 70.3425 10.4473 69.9743 9.91323C69.6062 9.37921 69.1712 8.84518 68.6692 8.34453C68.1673 7.84388 67.6318 7.40999 67.0964 7.04284C66.5275 6.6757 65.9586 6.34193 65.3562 6.1083C64.7539 5.84128 64.118 5.6744 63.4488 5.5409C62.8129 5.40739 62.1102 5.34064 61.4074 5.34064C60.7047 5.34064 60.0019 5.40739 59.3661 5.5409C58.6968 5.6744 58.061 5.84128 57.4586 6.1083C56.8562 6.34193 56.2539 6.6757 55.7184 7.04284C55.1495 7.40999 54.6476 7.84388 54.1456 8.34453C53.6436 8.84518 53.2086 9.37921 52.8405 9.91323C52.4724 10.4806 52.1377 11.048 51.9035 11.6488C51.6692 12.2496 51.4684 12.8838 51.3346 13.5513C51.2007 14.1854 51.1338 14.8863 51.1338 15.5873C51.1338 16.2882 51.2007 16.9891 51.3346 17.6232C51.4684 18.2908 51.6358 18.9249 51.9035 19.5257C52.1712 20.1265 52.4724 20.7273 52.8405 21.2613C53.2086 21.7953 53.6771 22.3293 54.1456 22.83C54.6476 23.3306 55.183 23.7645 55.7184 24.1317C56.2873 24.4988 56.8562 24.8326 57.4586 25.0662C58.061 25.3332 58.6968 25.5001 59.3661 25.6336C60.0354 25.7671 60.7047 25.8339 61.4074 25.8339C62.1102 25.8339 62.8129 25.7671 63.4822 25.6336C64.1515 25.5001 64.7873 25.2999 65.3897 24.9995C65.9921 24.7324 66.5944 24.3653 67.1633 23.9648C67.3976 23.7979 67.6653 23.5976 67.8995 23.364C67.8995 24.0983 67.933 24.1984 67.933 24.2652C68.0334 24.7658 68.2342 25.133 68.5354 25.4C68.8365 25.667 69.2381 25.8005 69.7401 25.8005C70.2421 25.8005 70.6771 25.6336 71.0787 25.3332C71.2795 25.1663 71.4468 24.9661 71.5472 24.7324C71.6476 24.4988 71.7145 24.2652 71.7145 23.9648V15.5539C71.7145 14.853 71.6476 14.1854 71.5137 13.5179C71.3464 12.8838 71.1791 12.2496 70.9113 11.6488ZM66.2932 20.4602C64.9547 21.7953 63.3149 22.4962 61.4074 22.4962C59.4665 22.4962 57.8267 21.8287 56.4547 20.4602C55.1161 19.0918 54.4133 17.4897 54.4133 15.5539C54.4133 13.6514 55.0826 12.016 56.4547 10.6475C57.7932 9.27908 59.4665 8.61154 61.4074 8.61154C63.3149 8.61154 64.9547 9.27908 66.2932 10.6475C67.6318 12.016 68.3346 13.6514 68.3346 15.5539C68.3346 17.4563 67.6653 19.0918 66.2932 20.4602Z" fill="#010101"/>
<path d="M61.4072 8.61066C59.4662 8.61066 57.8265 9.27819 56.4544 10.6466C55.1158 12.0151 54.4131 13.6505 54.4131 15.553C54.4131 17.4555 55.0824 19.0909 56.4544 20.4594C57.793 21.7944 59.4662 22.4953 61.4072 22.4953C63.3147 22.4953 64.9544 21.8278 66.293 20.4594C67.6316 19.0909 68.3343 17.4888 68.3343 15.553C68.3343 13.6505 67.6651 12.0151 66.293 10.6466C64.9544 9.27819 63.3147 8.61066 61.4072 8.61066ZM67.3639 13.0831C67.5312 13.4503 67.6316 13.8508 67.732 14.2513C67.7989 14.6518 67.8658 15.0857 67.8658 15.553C67.8658 15.9869 67.8324 16.4208 67.732 16.8213C67.665 17.2218 67.5312 17.6223 67.3639 17.9895C67.1965 18.3566 66.9958 18.7238 66.7615 19.0575C66.5273 19.3913 66.2595 19.7251 65.9249 20.0588C65.5902 20.3592 65.2891 20.6596 64.921 20.8932C64.5863 21.1269 64.2182 21.3271 63.8501 21.4607C63.482 21.6275 63.0804 21.7277 62.6788 21.7944C62.2773 21.8612 61.8422 21.9279 61.4072 21.9279C60.9387 21.9279 60.5036 21.8945 60.1021 21.7944C59.7005 21.7277 59.2989 21.5942 58.8973 21.4607C58.5292 21.2938 58.1611 21.1269 57.793 20.8932C57.4584 20.6596 57.1237 20.3926 56.7891 20.0588C56.4879 19.7584 56.1867 19.4247 55.9525 19.0575C55.7182 18.7238 55.5174 18.3566 55.3836 17.9895C55.2162 17.6223 55.1158 17.2218 55.0489 16.8213C54.982 16.4208 54.9151 15.9869 54.9151 15.553C54.9151 15.1191 54.9485 14.6852 55.0489 14.2513C55.1158 13.8508 55.2497 13.4503 55.3836 13.0831C55.5509 12.716 55.7517 12.3488 55.9859 11.9817C56.2202 11.6479 56.4879 11.3142 56.8225 10.9804C57.1237 10.68 57.4584 10.3796 57.8265 10.146C58.1611 9.91235 58.5292 9.71209 58.8973 9.5452C59.2654 9.37832 59.667 9.27819 60.1021 9.17806C60.5036 9.11131 60.9387 9.04455 61.4072 9.04455C61.8422 9.04455 62.2773 9.07793 62.6788 9.17806C63.0804 9.24481 63.482 9.37832 63.8501 9.5452C64.2182 9.71209 64.5863 9.91235 64.921 10.146C65.2556 10.3796 65.5902 10.6466 65.9249 10.9804C66.2261 11.3142 66.5273 11.6479 66.7615 11.9817C66.9958 12.3488 67.1965 12.716 67.3639 13.0831Z" fill="#010101"/>
</svg>

<svg width="119" height="26" viewBox="0 0 119 26" fill="none" xmlns="http://www.w3.org/2000/svg"><path d="M28.88 5.807c-.334-.267-.803-.4-1.271-.4-.503 0-.971.167-1.34.434a1.66 1.66 0 0 0-.668 1.368v2.837c0 .167.1.334.234.434a.632.632 0 0 0 .268.067.621.621 0 0 0 .234-.067l2.911-1.402c.168-.066.268-.267.268-.467V7.109c0-.267-.067-.534-.167-.768-.1-.2-.268-.4-.469-.534zm89.484 0c-.334-.267-.803-.4-1.271-.4a2.29 2.29 0 0 0-1.339.434 1.66 1.66 0 0 0-.669 1.368v2.837c0 .167.1.334.234.434.101.034.168.067.268.067.067 0 .134-.034.234-.067l2.912-1.402c.167-.066.267-.267.267-.467V7.109c0-.267-.067-.534-.167-.768-.134-.2-.268-.4-.469-.534z" fill="#BE1E25"/><path d="M51.234 8.11c.1-.166.134-.4.134-.667s-.034-.5-.134-.734a1.546 1.546 0 0 0-.435-.601 2.27 2.27 0 0 0-.602-.434 1.805 1.805 0 0 0-.737-.133c-.569 0-1.338.233-1.84 1.235l-5.957 12.382c-.803-1.568-6.19-12.282-6.258-12.416-.502-1.034-1.271-1.235-1.84-1.235-.268 0-.502.034-.736.134-.235.1-.436.233-.603.434-.2.2-.334.4-.435.6-.1.234-.134.468-.134.735 0 .3.034.5.134.667 0 0 8.132 15.754 8.165 15.754.168.334.335.668.536 1.001.134.234.335.4.535.534.235.134.469.167.736.167.402 0 .77-.167 1.105-.467.301-.267.569-.634.803-1.168L51.234 8.11zM24.898.567a1.96 1.96 0 0 0-.636-.433A1.805 1.805 0 0 0 23.526 0c-.536 0-1.272.2-1.707 1.202 0 .033-8.165 16.621-8.969 18.257-.836-1.636-9.27-18.257-9.27-18.257C3.08.2 2.344 0 1.84 0c-.234 0-.501.067-.702.167C.904.267.703.4.535.6c-.167.2-.334.4-.401.6A1.75 1.75 0 0 0 0 1.901c0 .334.067.568.167.802 0 .033 10.91 21.294 10.91 21.294.167.333.334.634.535.968.134.233.335.4.536.534.2.1.468.167.736.167.368 0 .703-.167 1.037-.501.268-.267.536-.634.77-1.168 0 0 10.575-21.294 10.608-21.294.1-.2.168-.468.168-.735 0-.267-.067-.5-.134-.734a3.289 3.289 0 0 0-.435-.668zm4.383 10.047c-.067-.066-.167-.066-.268-.066a.621.621 0 0 0-.234.066l-2.844 1.436a.52.52 0 0 0-.268.434v11.381c0 .5.167.968.535 1.335.168.2.368.334.603.434.234.1.468.167.736.167.502 0 .937-.167 1.339-.5.2-.168.368-.368.468-.602.1-.233.167-.467.167-.734V11.048c0-.2-.1-.333-.234-.434zm82.591 12.016a1.96 1.96 0 0 0-.635-.435 1.832 1.832 0 0 0-.737-.166h-2.576c-.435 0-.871-.034-1.272-.1a6.715 6.715 0 0 1-1.171-.334c-.368-.167-.737-.334-1.071-.568-.335-.233-.67-.5-1.004-.8a5.571 5.571 0 0 1-.837-.969 6.715 6.715 0 0 1-.602-1.068c-.167-.367-.268-.768-.368-1.168-.067-.4-.134-.834-.134-1.268V9.479h8.835c.267 0 .502-.033.736-.134.234-.1.435-.233.636-.4.2-.2.334-.4.435-.634.1-.234.133-.5.133-.768 0-.6-.133-1.068-.468-1.402-.301-.334-.77-.5-1.339-.5h-9.002V2.737c-.033-.5-.234-.935-.602-1.335-.167-.2-.402-.334-.602-.434A1.83 1.83 0 0 0 99.49.8a1.805 1.805 0 0 0-1.338.534c-.2.167-.335.367-.435.6-.1.234-.134.468-.134.702v13.35c0 .701.067 1.369.2 2.036.135.634.335 1.269.57 1.87.267.6.569 1.168.937 1.702.368.534.836 1.034 1.338 1.535.502.467 1.038.901 1.607 1.268a9.524 9.524 0 0 0 1.74.901c.602.234 1.238.434 1.907.534.67.134 1.339.167 2.042.167.535 0 1.405-.033 2.576-.067.603-.033 1.038-.2 1.372-.534.335-.333.502-.8.502-1.368 0-.267-.067-.5-.167-.734 0-.267-.167-.468-.335-.668zm6.86-12.016c-.067-.066-.167-.066-.267-.066a.625.625 0 0 0-.235.066l-2.844 1.436a.522.522 0 0 0-.268.434v11.381c0 .5.167.968.536 1.335.167.2.368.334.602.434.234.1.468.167.736.167.502 0 .937-.167 1.339-.5.201-.168.368-.368.468-.602.101-.233.168-.467.168-.734V11.048c0-.2-.067-.333-.235-.434zM95.173 15.92c0-.7-.067-1.368-.2-2.036a12.435 12.435 0 0 0-.57-1.902c-.267-.6-.568-1.201-.937-1.736-.368-.534-.836-1.068-1.305-1.568-.502-.5-1.037-.935-1.572-1.302-.57-.367-1.138-.7-1.74-.934-.603-.267-1.239-.434-1.908-.568-.67-.133-1.339-.2-2.041-.2-.703 0-1.406.067-2.042.2-.669.134-1.305.3-1.907.568-.603.267-1.205.567-1.74.934-.536.367-1.071.801-1.573 1.302-.502.5-.937 1.034-1.305 1.568a8.699 8.699 0 0 0-.937 1.736c-.235.6-.435 1.235-.57 1.87a10 10 0 0 0-.2 2.035v8.077c0 .267.067.5.134.735.1.233.234.433.435.6.167.167.401.3.602.4.234.101.469.134.703.134.268 0 .502-.066.736-.166.234-.1.435-.234.636-.434.2-.2.335-.4.435-.635.1-.233.134-.5.134-.767v-7.91c0-.434.033-.868.1-1.302.067-.4.201-.801.368-1.168.168-.367.369-.735.57-1.102.234-.334.501-.667.836-1.001.301-.3.636-.6 1.004-.835a6.753 6.753 0 0 1 1.07-.6c.369-.167.77-.267 1.206-.367.401-.067.87-.134 1.305-.134.435 0 .87.033 1.271.134.402.066.803.2 1.171.367a6.74 6.74 0 0 1 1.071.6c.335.234.67.501 1.004.835.302.334.603.667.837 1.001.234.334.435.701.602 1.102.168.367.268.767.335 1.168.067.4.134.834.134 1.302v8.043c0 .267.033.5.134.735.1.233.234.433.435.6.368.334.803.501 1.338.501.268 0 .502-.067.737-.167.234-.1.434-.233.635-.434.201-.2.335-.4.435-.634.1-.234.134-.467.134-.734v-7.91zm-24.262-4.271c-.267-.601-.569-1.202-.937-1.736a11.187 11.187 0 0 0-1.305-1.568 11.145 11.145 0 0 0-1.573-1.302c-.569-.367-1.137-.701-1.74-.935-.602-.267-1.238-.434-1.907-.567-.636-.134-1.339-.2-2.042-.2-.702 0-1.405.066-2.04.2-.67.133-1.306.3-1.908.567a8.74 8.74 0 0 0-1.74.935c-.57.367-1.071.8-1.573 1.302-.502.5-.937 1.034-1.306 1.568-.368.568-.702 1.135-.937 1.736a11.41 11.41 0 0 0-.568 1.902 9.993 9.993 0 0 0-.201 2.036 10 10 0 0 0 .2 2.036c.134.668.302 1.302.57 1.903.267.6.568 1.201.936 1.735.369.534.837 1.068 1.306 1.569.502.5 1.037.935 1.572 1.302.57.367 1.138.7 1.74.934.603.267 1.239.434 1.908.568a10.666 10.666 0 0 0 4.116 0A7.538 7.538 0 0 0 65.39 25c.602-.268 1.204-.635 1.773-1.035a5.82 5.82 0 0 0 .737-.601c0 .734.033.834.033.901.1.5.301.868.602 1.135.302.267.703.4 1.205.4.502 0 .937-.166 1.339-.467.2-.167.368-.367.468-.6.1-.234.168-.468.168-.768v-8.411c0-.701-.067-1.369-.201-2.036-.168-.634-.335-1.268-.603-1.87zm-4.618 8.811c-1.338 1.335-2.978 2.036-4.886 2.036-1.94 0-3.58-.667-4.952-2.036-1.339-1.368-2.042-2.97-2.042-4.906 0-1.903.67-3.538 2.042-4.906 1.338-1.369 3.012-2.036 4.952-2.036 1.908 0 3.548.667 4.886 2.036 1.339 1.368 2.042 3.003 2.042 4.906 0 1.902-.67 3.538-2.042 4.906z" fill="#010101"/><path d="M61.407 8.61c-1.94 0-3.58.668-4.953 2.037-1.338 1.368-2.04 3.003-2.04 4.906 0 1.902.668 3.538 2.04 4.906 1.339 1.335 3.012 2.036 4.953 2.036 1.908 0 3.547-.667 4.886-2.036 1.339-1.368 2.041-2.97 2.041-4.906 0-1.903-.669-3.538-2.041-4.906-1.339-1.369-2.978-2.036-4.886-2.036zm5.957 4.473c.167.367.268.768.368 1.168.067.4.134.835.134 1.302 0 .434-.034.868-.134 1.268-.067.4-.2.801-.368 1.168a6.725 6.725 0 0 1-.603 1.069 7.364 7.364 0 0 1-.836 1c-.335.301-.636.602-1.004.835a4.723 4.723 0 0 1-1.07.568 4.68 4.68 0 0 1-1.172.333c-.402.067-.837.134-1.272.134-.468 0-.903-.034-1.305-.134-.401-.066-.803-.2-1.205-.333-.368-.167-.736-.334-1.104-.568-.335-.233-.67-.5-1.004-.834a6.039 6.039 0 0 1-.837-1.002 4.694 4.694 0 0 1-.568-1.067 4.673 4.673 0 0 1-.335-1.169c-.067-.4-.134-.834-.134-1.268 0-.434.034-.868.134-1.302.067-.4.2-.8.335-1.168.167-.367.368-.734.602-1.101.234-.334.502-.668.837-1.002.3-.3.635-.6 1.004-.834a6.749 6.749 0 0 1 1.07-.6c.368-.168.77-.268 1.205-.368a7.84 7.84 0 0 1 1.305-.133c.435 0 .87.033 1.272.133.401.067.803.2 1.171.367.368.167.736.367 1.071.601.335.234.67.5 1.004.834.301.334.602.668.837 1.002.234.367.434.734.602 1.101z" fill="#010101"/></svg>
